!!!!SEGMENT: pl-sa--549-a-ix-29--044_anonim--andante.krn
!!!cenid: 18xx:498
!!!COM: Anonim
!!!COM-rismID: pe30004985
!!!CDT:
!!!CNT:
!!!OTL: Andante
!!!PDT:
!!!AGN: Secular
!!!SMS-siglum: PL-SA
!!!SMS-shelfmark: 549/A IX 29
!!!SMS-shelfwork: 044 W
!!!SMS-variant:
!!!SMS-altvar:
!!!NIFC-rismSourceID: 1001068944
!!!NIFC-rismChildID: 1001068944
!!!NIFC-islandoraID: none
!!!URL-pdf-islandora:
!!!URL-scan: https://bc.bdsandomierz.pl/dlibra/publication/1441/edition/1409/content @EN{Scan in the Sandomierz Diocese Digital Library} @PL{Skany w portalu Cyfrowa Biblioteka Diecezjalna w Sandomierzu}
!!!ONB-nifc: Str. 32, s. 1-2
!!!AIN: 2 piano
!!!key:
**kern	**fing	**kern	**fing
*part2	*	*part1	*
*staff2	*	*staff1	*
*I"[piano]	*	*I"[piano]	*
*Ipiano	*	*Ipiano	*
*ICklav	*	*ICklav	*
*clefF4	*	*clefG2	*
*k[]	*	*	*
*C:	*	*	*
*M2/4	*	*M2/4	*
=1	=1	=1	=1
!	!	!LO:TX:i:t=Andante\nporuszenie\nwolne	!
16E\LL 16C\	5 3	8g\L	1
16G\	1	.	.
16E\	3	16a\L	2
16G\JJ	4	16b\JJ	3
!	!	!LO:N:vis=8 : cała grupa	!
16E\LL 16C\	.	8cc\L	4
16G\	.	.	.
16E\	.	8cc\J	.
16G\JJ	.	.	.
=2	=2	=2	=2
16D\LL	.	8.b\L	3
16G\	1	.	.
16F\	2	.	.
16G\JJ	1	16dd\Jk	5
16D\LL	5	8cc\	.
16G\	1	.	.
16E\	3	8r	.
16G\JJ	1	.	.
=3	=3	=3	=3
16BB\LL	5	(8g\L	1
16G\	1	.	.
16D\	3	16.ff\L)	5
16G\JJ	1	.	.
.	.	32g\JJk	.
16C\LL	4	(8g\L	1
16G\	1	.	.
16E\	2	16.ee\L)	4
16G\JJ	1	.	.
.	.	32cc\JJk	2
=4	=4	=4	=4
16GG\LL	5	(4ee\ 4cc\	2 4
16G\	1	.	.
16F#X\	2	.	.
16G\JJ	1	.	.
16GG'\LL	.	8dd\ 8b\)	.
16G'\	1	.	.
16F#'\	2	8r	.
16D'\JJ	4	.	.
=5	=5	=5	=5
16E\LL 16C\	5 3	8g\L	1
16G\	1	.	.
16E\	3	16a\L	.
16G\JJ	1	16b\JJ	3
16E\LL 16C\	.	8cc\L	4
16G\	.	.	.
16E\	.	8cc\J	3
16G\JJ	.	.	.
!!LO:LB:g=original
=6	=6	=6	=6
16G#X\LL 16E\	5 3	8.b\L	3
16B\	1	.	.
16G#\	3	.	.
16B\JJ	1	16ee\Jk	5
16A\LL	2	8a/	1
16c\	1	.	.
16F\	5	16aa\LL	.
16A\JJ	3	32ff\L	.
.	.	32dd\JJJ	.
=7	=7	=7	=7
16c\LL 16G\	5 3	8cc\L	1
16e\	1	.	.
16c\ 16G\	.	16.cc\L	4
16c\JJ	.	.	.
.	.	32cc\JJk	.
16d\LL 16G\	5 2	16b\LL	3
16f\	.	16a\	2
16d\ 16G\	.	16b\	3
16f\JJ	.	16g\JJ	1
=8	=8	=8	=8
8e\L 8c\	1 3	8cc\L	3
8c\ 8C\	.	8ee\ 8g\	1 5
8c\J 8C\	.	8cc\J 8e\	1 4
8r	.	8r	.
==	==	==	==
*-	*-	*-	*-
!!!system-decoration: {s1,s2}
!!!ENC: Anastazja Marusiak
!!!END: 2020-06-17
!!!EED: Andrzej Borzym
!!!EEV: 2022-01-05
!!!YEC: Copyright 2022 Narodowy Instytut Fryderyka Chopina (https://polishscores.org)
!!!YEM: License CC-BY-4.0 (https://creativecommons.org/licenses/by/4.0)
